X:0049
T:Willie was a Wanton Wag.
M:2/4
L:1/8
Q:1/4=104
I: :: ::
Z:Jack Campin * www.campin.me.uk * 2009
K:D
A|FA (AB/c/)| d>e        (d/c/)(B/A/)| FAAf     |e>d B>A|
  FAA (B/c/)|(d/c/)(d/e/) dA/G/      | FAAf     |e>dd  :|
g|faef      | d>e         g/f/e/d/   |(f/g/a) ef|e>d B>g|
  f>aef     | d>efg                  | aAAf     |e>dd  :|

